static/assets/head_icons_png/woman/yanjing/1039513.svg

<svg xmlns="http://www.w3.org/2000/svg" width="21" height="5"><g transform="translate(-60.25 -29.4)"><path d="M68.7 30.35l.15.05.4.4-.05.1.2.15h-.2l-.05.55v.05l-.15.5-.1.25h-.1l.25-.95v-.3q.05-.4-.5-.65l-1.25-.3q-2.15-.3-3.4 0-1.15.2-1.25.5l-.1-.05q.75-.85 4-.65 2.4.3 2.55.85l-.4-.5" fill="#393840"/><path d="M68.1 33.45h-.05q1.5-2.45.5-2.95.55.25.5.65v.3l-.25.95-.7 1.05" fill="#c0ad9c"/><path d="M68.7 33.05l-.1-.1.1-.15.2.1.3-.45.15-.6-.2-.2v-.05h.15l.15.4-.3.65-.4.4h-.05" fill="#85716a"/><path d="M69.65 31.95l-.25.7-.35.45H69l-.25-.05.4-.4.3-.65-.15-.4.2.05.15.3m-.15 0l-.15.55.15-.15.1-.4-.15-.2.05.2" fill="#ac948a"/><path d="M68.9 32.45l.1.05.1-.15v-.1l-.1-.1.15-.5.2.2-.15.6-.3.45-.2-.1.2-.35" fill="#625857"/><path d="M69.05 33.1l.35-.45.25-.7-.15-.3q.25.1.15.65l-.05.05-.55.9-.4-.05h.3l.05-.05.05-.05" fill="#9f7e6f"/><path d="M69.45 31.75l.15.2-.1.4-.15.15.15-.55-.05-.2" fill="#cebbb4"/><path d="M69.1 32.25v.1l-.1.15-.1-.05v-.05l.1-.25.1.1" fill="#d0d1d3"/><path d="M68.6 32.95l.1.1h.05l.25.05v.05l-.05.05h-.3l-.1-.15.05-.1" fill="#cbb5aa"/><path d="M62.65 30.85l-.15-.15.05-.05.1.05V30.85" fill="#fcffff"/><path d="M62.6 31.45v.1H62.45v-.8l.05-.05.15.15-.05.6" fill="#2f3430"/><path d="M62.35 30.75h.1V31h-.15l.05-.25" fill="#656678"/><path d="M62.45 30.75h-.1l-.05.25h-.05v-.25l-.05-.15-.25-.05-.25-.05-.2-.15.05.05h.1l.5.1h.05l.1.1.05.05h.1v.1" fill="#969799"/><path d="M62.15 30.95l-.05-.05-.1-.05h-.1l.1-.2h.15v.3" fill="#9d9d9f"/><path d="M62.15 30.65H62l-.1.2h-.05l-.05-.05-.05-.25h-.05v.2l-.25-.1-.1-.15.05-.1-.75-.5.05-.05.8.5.2.15.25.05.25.05.05.15V31h-.05l-.05-.05v-.3" fill="#f8fdf9"/><path d="M60.7 30l-.1.05-.1-.25-.25-.25v-.1l.45.4-.05.05v.05l.05.05" fill="#363634"/><path d="M61.8 30.8h-.05l-.05-.05v-.2h.05l.05.25m-1.15-.85v-.05l.75.5-.05.1v-.05L60.7 30l-.05-.05" fill="#8a7b7e"/><path d="M60.6 30.05h-.05L60.5 30l-.2-.25-.05-.1v-.1l.25.25.1.25" fill="#cbcdcc"/><radialGradient id="a" gradientUnits="userSpaceOnUse" gradientTransform="matrix(.0057 0 0 .00455 65.4 30.95)" spreadMethod="pad" cx="0" cy="0" r="819.2" fx="0" fy="0"><stop offset=".031" stop-color="#fff" stop-opacity="0"/><stop offset="1" stop-color="#fff" stop-opacity=".212"/></radialGradient><path d="M68.05 33.45l-.05.05-4.35-.15-.25-.1q-.6-.3-.8-1.8l.05-.6V30.7q.1-.3 1.25-.5 1.25-.3 3.4 0l1.25.3q1 .5-.5 2.95m-1.1-3.1l.25 1.1.4.05.35-.95-1-.2m1.3 1.45l.6-.9-.75-.3-.4.95q.3.05.5.25h.05" fill="url(#a)"/><linearGradient id="b" gradientUnits="userSpaceOnUse" gradientTransform="matrix(-.00044 -.00008 -.00012 .00063 67.75 31)" x1="-819.2" x2="819.2"><stop offset=".031" stop-color="#fff" stop-opacity="0"/><stop offset="1" stop-color="#fff" stop-opacity=".314"/></linearGradient><path d="M67.95 30.55l-.35.95-.4-.05-.25-1.1 1 .2" fill="url(#b)"/><linearGradient id="c" gradientUnits="userSpaceOnUse" gradientTransform="matrix(-.00027 -.0001 -.00023 .00061 68.9 31.55)" x1="-819.2" x2="819.2"><stop offset=".031" stop-color="#fff" stop-opacity="0"/><stop offset="1" stop-color="#fff" stop-opacity=".314"/></linearGradient><path d="M68.2 31.8q-.2-.2-.5-.25l.4-.95.75.3-.6.9h-.05" fill="url(#c)"/><linearGradient id="d" gradientUnits="userSpaceOnUse" gradientTransform="matrix(.00381 .0001 -.00002 .00061 65.85 30.35)" x1="-819.2" x2="819.2"><stop offset=".047" stop-color="#baaeae"/><stop offset=".549" stop-color="#8e7976"/><stop offset="1" stop-color="#f5fdff"/></linearGradient><path d="M69.1 30.85q-.15-.55-2.55-.85-3.25-.2-4 .65l-.05.05-.05.05V30.6l.05-.05.25-.3.1-.05q3.1-.75 5.75.1l.1.05.4.5" fill="url(#d)"/><linearGradient id="e" gradientUnits="userSpaceOnUse" gradientTransform="matrix(.0012 -.00002 0 .00015 70.4 30.9)" x1="-819.2" x2="819.2"><stop offset=".035" stop-color="#4e4d55"/><stop offset=".447" stop-color="#a5a4b6"/><stop offset=".898" stop-color="#8b7d7c"/></linearGradient><path d="M69.2 30.9l.05-.1 2.1.05V31l-1.95.05-.2-.15" fill="url(#e)"/><linearGradient id="f" gradientUnits="userSpaceOnUse" gradientTransform="matrix(.0033 -.00018 .0001 .00162 65.6 32.55)" x1="-819.2" x2="819.2"><stop offset=".047" stop-color="#d6cec3"/><stop offset=".549" stop-color="#b28d7d"/><stop offset="1" stop-color="#ac9792"/></linearGradient><path d="M68.8 32.4h.1v.05l-.2.35-.1.15-.05.1-.15.2-.1.15-.35.2-4.35-.1-.25-.1q-.6-.35-.8-1.85h.05v-.1q.2 1.5.8 1.8l.25.1 4.35.15.05-.05h.05l.7-1.05" fill="url(#f)"/><path d="M78 30.55l-.1.1q-.05-.3-1.25-.55-1.25-.25-3.35.05l-1.25.3q-.55.25-.5.65v.25l.25 1h-.1l-.1-.25-.15-.55-.1-.6h-.2l.25-.15-.05-.05.35-.4.2-.1q-.55.35-.4.55.15-.55 2.55-.85 3.2-.2 3.95.6" fill="#393840"/><path d="M71.8 32.35l-.25-1v-.25q-.05-.4.5-.65-1 .5.45 2.95l-.7-1.05" fill="#c0ad9c"/><path d="M71.3 31.55h.15l-.2.2.15.65.3.45.2-.1.1.15-.15.05-.05.05-.35-.4-.3-.7.15-.35" fill="#85716a"/><path d="M71.2 32.6l-.25-.7.15-.3.2-.05-.15.35.3.7.35.4-.25.05-.35-.45m-.1-.7l.05-.2-.15.2.1.35.1.2h.05l-.15-.55" fill="#ac948a"/><path d="M71.9 32.75l-.2.1-.3-.45-.15-.65.2-.2.15.55h-.05l-.05.1v.05l.1.2.1-.1.2.4" fill="#625857"/><path d="M71.55 33.05l.05.05h.05l.25.05h-.35l-.6-.9q-.15-.55.15-.65l-.15.3.25.7.35.45" fill="#9f7e6f"/><path d="M71.2 32.45l-.1-.2-.1-.35.15-.2-.05.2.15.55h-.05" fill="#cebbb4"/><path d="M71.6 32.45l-.1-.2v-.05l.05-.1h.05l.1.25-.1.1" fill="#d0d1d3"/><path d="M71.65 33.1h-.05l-.05-.05.25-.05.05-.05.15-.05.05.05-.15.2-.25-.05" fill="#cbb5aa"/><path d="M78 30.55l.05.1-.1.1v-.1h-.05l.1-.1" fill="#fcffff"/><path d="M77.95 31.35v-.6l.1-.1.05.05.05.25v.25l-.05.3H77.95v-.15" fill="#2f3430"/><path d="M78.1 30.7h.15l.05.25h-.15l-.05-.25" fill="#656678"/><path d="M78.1 30.6l.15-.05h.05l.1-.1.55-.1H79v-.05h.05l-.2.1-.25.05-.2.05-.1.2.05.2v.05h-.05l-.05-.25h-.15v-.1" fill="#969799"/><path d="M78.7 30.8h-.15l-.1.05-.05.05v-.3l.15-.05.15.25" fill="#9d9d9f"/><path d="M78.55 30.55l-.15.05v.3l-.05.05v-.05l-.05-.2.1-.2.2-.05.25-.05.2-.1.85-.55v.05l-.7.55q-.15.05 0 .1l-.1.15-.25.1.05-.2h-.1v.25h-.05l-.05.05-.15-.25" fill="#f8fdf9"/><path d="M79.95 29.9l-.05-.1v-.05l.4-.35v.05l-.25.3L80 30l-.1-.05.05-.05" fill="#363634"/><path d="M79.9 29.8l.05.1-.05.05-.65.45-.05.05q-.15-.05 0-.1l.7-.55m-1.1.7h.1l-.05.2h-.05v.05-.25" fill="#8a7b7e"/><path d="M80.05 29.75l.25-.3V29.6l-.05.1-.2.25L80 30l.05-.25" fill="#cbcdcc"/><radialGradient id="g" gradientUnits="userSpaceOnUse" gradientTransform="matrix(-.0057 0 0 .00453 75.2 30.9)" spreadMethod="pad" cx="0" cy="0" r="819.2" fx="0" fy="0"><stop offset=".031" stop-color="#fff" stop-opacity="0"/><stop offset="1" stop-color="#fff" stop-opacity=".212"/></radialGradient><path d="M76.75 30.5l-.95-.2.2 1.05.4.1.35-.95m1.2.25v.6q-.2 1.55-.8 1.85l-.25.1-4.35.1h-.05q-1.45-2.45-.45-2.95l1.25-.3q2.1-.3 3.35-.05 1.2.25 1.25.55l.05.05v.05m-.3.1l-.75-.3-.4.95q.3.05.55.25l.6-.9" fill="url(#g)"/><linearGradient id="h" gradientUnits="userSpaceOnUse" gradientTransform="matrix(-.0038 .0001 .00002 .00061 74.7 30.3)" x1="-819.2" x2="819.2"><stop offset=".047" stop-color="#baaeae"/><stop offset=".549" stop-color="#8e7976"/><stop offset="1" stop-color="#f5fdff"/></linearGradient><path d="M74.05 29.95q-2.4.3-2.55.85-.15-.2.4-.55h.1q2.65-.85 5.75-.1l.1.05.2.3.05.05V30.7l-.05-.05-.05-.1q-.75-.8-3.95-.6" fill="url(#h)"/><linearGradient id="i" gradientUnits="userSpaceOnUse" gradientTransform="matrix(-.00044 -.00008 -.00012 .00063 76.55 30.95)" x1="-819.2" x2="819.2"><stop offset=".031" stop-color="#fff" stop-opacity="0"/><stop offset="1" stop-color="#fff" stop-opacity=".314"/></linearGradient><path d="M76.4 31.45l-.4-.1-.2-1.05.95.2-.35.95" fill="url(#i)"/><linearGradient id="j" gradientUnits="userSpaceOnUse" gradientTransform="matrix(-.0033 -.00018 -.0001 .0016 75 32.5)" x1="-819.2" x2="819.2"><stop offset=".047" stop-color="#d6cec3"/><stop offset=".549" stop-color="#b28d7d"/><stop offset="1" stop-color="#ac9792"/></linearGradient><path d="M71.7 32.35h.1l.7 1.05h.05l4.35-.1.25-.1q.6-.3.8-1.85v.15H78q-.15 1.5-.75 1.85l-.25.1-4.35.1-.4-.2-.05-.15-.15-.25-.05-.05-.1-.15-.2-.4" fill="url(#j)"/><linearGradient id="k" gradientUnits="userSpaceOnUse" gradientTransform="matrix(-.00027 -.0001 -.00023 .00061 77.7 31.5)" x1="-819.2" x2="819.2"><stop offset=".031" stop-color="#fff" stop-opacity="0"/><stop offset="1" stop-color="#fff" stop-opacity=".314"/></linearGradient><path d="M77.05 31.75q-.25-.2-.55-.25l.4-.95.75.3-.6.9" fill="url(#k)"/></g></svg>

<?xml version="1.0" encoding="utf-8"?>
<svg version="1.1" id="Layer_1"
xmlns="http://www.w3.org/2000/svg"
xmlns:xlink="http://www.w3.org/1999/xlink"
xmlns:author="http://www.sothink.com"
width="21px" height="5px"
xml:space="preserve">
<g id="657" transform="matrix(1, 0, 0, 1, -60.25, -29.4)">
<path style="fill:#393840;fill-opacity:1" d="M68.7,30.35L68.85 30.4L69.25 30.8L69.2 30.9L69.4 31.05L69.2 31.05L69.15 31.6L69.15 31.65L69 32.15L68.9 32.4L68.8 32.4L69.05 31.45L69.05 31.15Q69.1 30.75 68.55 30.5L67.3 30.2Q65.15 29.9 63.9 30.2Q62.75 30.4 62.65 30.7L62.55 30.65Q63.3 29.8 66.55 30Q68.95 30.3 69.1 30.85L68.7 30.35" />
<path style="fill:#C0AD9C;fill-opacity:1" d="M68.1,33.45L68.05 33.45Q69.55 31 68.55 30.5Q69.1 30.75 69.05 31.15L69.05 31.45L68.8 32.4L68.1 33.45" />
<path style="fill:#85716A;fill-opacity:1" d="M68.7,33.05L68.6 32.95L68.7 32.8L68.9 32.9L69.2 32.45L69.35 31.85L69.15 31.65L69.15 31.6L69.3 31.6L69.45 32L69.15 32.65L68.75 33.05L68.7 33.05" />
<path style="fill:#AC948A;fill-opacity:1" d="M69.65,31.95L69.4 32.65L69.05 33.1L69 33.1L68.75 33.05L69.15 32.65L69.45 32L69.3 31.6L69.5 31.65L69.65 31.95M69.5,31.95L69.35 32.5L69.5 32.35L69.6 31.95L69.45 31.75L69.5 31.95" />
<path style="fill:#625857;fill-opacity:1" d="M68.9,32.45L69 32.5L69.1 32.35L69.1 32.25L69 32.15L69.15 31.65L69.35 31.85L69.2 32.45L68.9 32.9L68.7 32.8L68.9 32.45" />
<path style="fill:#9F7E6F;fill-opacity:1" d="M69.05,33.1L69.4 32.65L69.65 31.95L69.5 31.65Q69.75 31.75 69.65 32.3L69.6 32.35L69.05 33.25L68.65 33.2L68.95 33.2L69 33.15L69.05 33.1" />
<path style="fill:#CEBBB4;fill-opacity:1" d="M69.45,31.75L69.6 31.95L69.5 32.35L69.35 32.5L69.5 31.95L69.45 31.75" />
<path style="fill:#D0D1D3;fill-opacity:1" d="M69.1,32.25L69.1 32.35L69 32.5L68.9 32.45L68.9 32.4L69 32.15L69.1 32.25" />
<path style="fill:#CBB5AA;fill-opacity:1" d="M68.6,32.95L68.7 33.05L68.75 33.05L69 33.1L69 33.15L68.95 33.2L68.65 33.2L68.55 33.05L68.6 32.95" />
<path style="fill:#FCFFFF;fill-opacity:1" d="M62.65,30.85L62.5 30.7L62.55 30.65L62.65 30.7L62.65 30.75L62.65 30.85" />
<path style="fill:#2F3430;fill-opacity:1" d="M62.6,31.45L62.6 31.55L62.55 31.55L62.45 31.55L62.45 31.25L62.45 31L62.45 30.8L62.45 30.75L62.5 30.7L62.65 30.85L62.6 31.45" />
<path style="fill:#656678;fill-opacity:1" d="M62.35,30.75L62.45 30.75L62.45 30.8L62.45 31L62.3 31L62.35 30.75" />
<path style="fill:#969799;fill-opacity:1" d="M62.45,30.75L62.35 30.75L62.3 31L62.25 31L62.25 30.95L62.25 30.75L62.2 30.6L61.95 30.55L61.7 30.5L61.5 30.35L61.55 30.4L61.6 30.4L61.65 30.4L62.15 30.5L62.2 30.5L62.3 30.6L62.35 30.65L62.45 30.65L62.45 30.75" />
<path style="fill:#9D9D9F;fill-opacity:1" d="M62.15,30.95L62.1 30.9L62 30.85L61.9 30.85L62 30.65L62.15 30.65L62.15 30.95" />
<path style="fill:#F8FDF9;fill-opacity:1" d="M62.15,30.65L62 30.65L61.9 30.85L61.85 30.85L61.8 30.8L61.75 30.55L61.7 30.55L61.7 30.75L61.45 30.65L61.35 30.5L61.4 30.4L60.65 29.9L60.7 29.85L61.5 30.35L61.7 30.5L61.95 30.55L62.2 30.6L62.25 30.75L62.25 30.95L62.25 31L62.2 31L62.15 30.95L62.15 30.65" />
<path style="fill:#363634;fill-opacity:1" d="M60.7,30L60.6 30.05L60.5 29.8L60.25 29.55L60.25 29.45L60.7 29.85L60.65 29.9L60.65 29.95L60.7 30" />
<path style="fill:#8A7B7E;fill-opacity:1" d="M61.8,30.8L61.75 30.8L61.7 30.75L61.7 30.55L61.75 30.55L61.8 30.8M60.65,29.95L60.65 29.9L61.4 30.4L61.35 30.5L61.35 30.45L60.7 30L60.65 29.95" />
<path style="fill:#CBCDCC;fill-opacity:1" d="M60.6,30.05L60.55 30.05L60.5 30L60.3 29.75L60.25 29.65L60.25 29.6L60.25 29.55L60.5 29.8L60.6 30.05" />
<radialGradient
id="RadialGradID_5382" gradientUnits="userSpaceOnUse" gradientTransform="matrix(0.00569153, 0, 0, 0.00454712, 65.4, 30.95)" spreadMethod ="pad" cx="0" cy="0" r="819.2" fx="0" fy="0" >
<stop  offset="0.0313725"  style="stop-color:#FFFFFF;stop-opacity:0" />
<stop  offset="1"  style="stop-color:#FFFFFF;stop-opacity:0.211765" />
</radialGradient>
<path style="fill:url(#RadialGradID_5382) " d="M68.05,33.45L68 33.5L63.65 33.35L63.4 33.25Q62.8 32.95 62.6 31.45L62.65 30.85L62.65 30.75L62.65 30.7Q62.75 30.4 63.9 30.2Q65.15 29.9 67.3 30.2L68.55 30.5Q69.55 31 68.05 33.45M66.95,30.35L67.2 31.45L67.6 31.5L67.95 30.55L66.95 30.35M68.25,31.8L68.85 30.9L68.1 30.6L67.7 31.55Q68 31.6 68.2 31.8L68.25 31.8" />
<linearGradient
id="LinearGradID_5383" gradientUnits="userSpaceOnUse" gradientTransform="matrix(-0.000442505, -7.62939e-005, -0.00012207, 0.00062561, 67.75, 31)" spreadMethod ="pad" x1="-819.2" y1="0" x2="819.2" y2="0" >
<stop  offset="0.0313725" style="stop-color:#FFFFFF;stop-opacity:0" />
<stop  offset="1" style="stop-color:#FFFFFF;stop-opacity:0.313725" />
</linearGradient>
<path style="fill:url(#LinearGradID_5383) " d="M67.95,30.55L67.6 31.5L67.2 31.45L66.95 30.35L67.95 30.55" />
<linearGradient
id="LinearGradID_5384" gradientUnits="userSpaceOnUse" gradientTransform="matrix(-0.000274658, -0.000106812, -0.000228882, 0.000610352, 68.9, 31.55)" spreadMethod ="pad" x1="-819.2" y1="0" x2="819.2" y2="0" >
<stop  offset="0.0313725" style="stop-color:#FFFFFF;stop-opacity:0" />
<stop  offset="1" style="stop-color:#FFFFFF;stop-opacity:0.313725" />
</linearGradient>
<path style="fill:url(#LinearGradID_5384) " d="M68.2,31.8Q68 31.6 67.7 31.55L68.1 30.6L68.85 30.9L68.25 31.8L68.2 31.8" />
<linearGradient
id="LinearGradID_5385" gradientUnits="userSpaceOnUse" gradientTransform="matrix(0.0038147, 0.000106812, -1.52588e-005, 0.000610352, 65.85, 30.35)" spreadMethod ="pad" x1="-819.2" y1="0" x2="819.2" y2="0" >
<stop  offset="0.0470588" style="stop-color:#BAAEAE;stop-opacity:1" />
<stop  offset="0.54902" style="stop-color:#8E7976;stop-opacity:1" />
<stop  offset="1" style="stop-color:#F5FDFF;stop-opacity:1" />
</linearGradient>
<path style="fill:url(#LinearGradID_5385) " d="M69.1,30.85Q68.95 30.3 66.55 30Q63.3 29.8 62.55 30.65L62.5 30.7L62.45 30.75L62.45 30.65L62.45 30.6L62.5 30.55L62.75 30.25L62.85 30.2Q65.95 29.45 68.6 30.3L68.7 30.35L69.1 30.85" />
<linearGradient
id="LinearGradID_5386" gradientUnits="userSpaceOnUse" gradientTransform="matrix(0.00120544, -1.52588e-005, 0, 0.000152588, 70.4, 30.9)" spreadMethod ="pad" x1="-819.2" y1="0" x2="819.2" y2="0" >
<stop  offset="0.0352941" style="stop-color:#4E4D55;stop-opacity:1" />
<stop  offset="0.447059" style="stop-color:#A5A4B6;stop-opacity:1" />
<stop  offset="0.898039" style="stop-color:#8B7D7C;stop-opacity:1" />
</linearGradient>
<path style="fill:url(#LinearGradID_5386) " d="M69.2,30.9L69.25 30.8L71.35 30.85L71.35 30.95L71.35 31L69.4 31.05L69.2 30.9" />
<linearGradient
id="LinearGradID_5387" gradientUnits="userSpaceOnUse" gradientTransform="matrix(0.0032959, -0.000183105, 9.15527e-005, 0.00161743, 65.6, 32.55)" spreadMethod ="pad" x1="-819.2" y1="0" x2="819.2" y2="0" >
<stop  offset="0.0470588" style="stop-color:#D6CEC3;stop-opacity:1" />
<stop  offset="0.54902" style="stop-color:#B28D7D;stop-opacity:1" />
<stop  offset="1" style="stop-color:#AC9792;stop-opacity:1" />
</linearGradient>
<path style="fill:url(#LinearGradID_5387) " d="M68.8,32.4L68.9 32.4L68.9 32.45L68.7 32.8L68.6 32.95L68.55 33.05L68.4 33.25L68.3 33.4L67.95 33.6L63.6 33.5L63.35 33.4Q62.75 33.05 62.55 31.55L62.6 31.55L62.6 31.45Q62.8 32.95 63.4 33.25L63.65 33.35L68 33.5L68.05 33.45L68.1 33.45L68.8 32.4" />
<path style="fill:#393840;fill-opacity:1" d="M78,30.55L77.9 30.65Q77.85 30.35 76.65 30.1Q75.4 29.85 73.3 30.15L72.05 30.45Q71.5 30.7 71.55 31.1L71.55 31.35L71.8 32.35L71.7 32.35L71.6 32.1L71.45 31.55L71.35 30.95L71.15 30.95L71.4 30.8L71.35 30.75L71.7 30.35L71.9 30.25Q71.35 30.6 71.5 30.8Q71.65 30.25 74.05 29.95Q77.25 29.75 78 30.55" />
<path style="fill:#C0AD9C;fill-opacity:1" d="M71.8,32.35L71.55 31.35L71.55 31.1Q71.5 30.7 72.05 30.45Q71.05 30.95 72.5 33.4L71.8 32.35" />
<path style="fill:#85716A;fill-opacity:1" d="M71.3,31.55L71.45 31.55L71.25 31.75L71.4 32.4L71.7 32.85L71.9 32.75L72 32.9L71.85 32.95L71.8 33L71.45 32.6L71.15 31.9L71.3 31.55" />
<path style="fill:#AC948A;fill-opacity:1" d="M71.2,32.6L70.95 31.9L71.1 31.6L71.3 31.55L71.15 31.9L71.45 32.6L71.8 33L71.55 33.05L71.2 32.6M71.1,31.9L71.15 31.7L71 31.9L71.1 32.25L71.2 32.45L71.25 32.45L71.1 31.9" />
<path style="fill:#625857;fill-opacity:1" d="M71.9,32.75L71.7 32.85L71.4 32.4L71.25 31.75L71.45 31.55L71.6 32.1L71.55 32.1L71.5 32.2L71.5 32.25L71.6 32.45L71.7 32.35L71.9 32.75" />
<path style="fill:#9F7E6F;fill-opacity:1" d="M71.55,33.05L71.6 33.1L71.65 33.1L71.9 33.15L71.55 33.15L70.95 32.25Q70.8 31.7 71.1 31.6L70.95 31.9L71.2 32.6L71.55 33.05" />
<path style="fill:#CEBBB4;fill-opacity:1" d="M71.2,32.45L71.1 32.25L71 31.9L71.15 31.7L71.1 31.9L71.25 32.45L71.2 32.45" />
<path style="fill:#D0D1D3;fill-opacity:1" d="M71.6,32.45L71.5 32.25L71.5 32.2L71.55 32.1L71.6 32.1L71.7 32.35L71.6 32.45" />
<path style="fill:#CBB5AA;fill-opacity:1" d="M71.65,33.1L71.6 33.1L71.55 33.05L71.8 33L71.85 32.95L72 32.9L72.05 32.95L71.9 33.15L71.65 33.1" />
<path style="fill:#FCFFFF;fill-opacity:1" d="M78,30.55L78.05 30.65L77.95 30.75L77.95 30.7L77.95 30.65L77.9 30.65L78 30.55" />
<path style="fill:#2F3430;fill-opacity:1" d="M77.95,31.35L77.95 30.75L78.05 30.65L78.1 30.7L78.15 30.95L78.15 31.2L78.1 31.5L78 31.5L77.95 31.5L77.95 31.35" />
<path style="fill:#656678;fill-opacity:1" d="M78.1,30.7L78.25 30.7L78.3 30.95L78.15 30.95L78.1 30.7" />
<path style="fill:#969799;fill-opacity:1" d="M78.1,30.6L78.25 30.55L78.3 30.55L78.4 30.45L78.95 30.35L79 30.35L79 30.3L79.05 30.3L78.85 30.4L78.6 30.45L78.4 30.5L78.3 30.7L78.35 30.9L78.35 30.95L78.3 30.95L78.25 30.7L78.1 30.7L78.1 30.6" />
<path style="fill:#9D9D9F;fill-opacity:1" d="M78.7,30.8L78.55 30.8L78.45 30.85L78.4 30.9L78.4 30.6L78.55 30.55L78.7 30.8" />
<path style="fill:#F8FDF9;fill-opacity:1" d="M78.55,30.55L78.4 30.6L78.4 30.9L78.35 30.95L78.35 30.9L78.3 30.7L78.4 30.5L78.6 30.45L78.85 30.4L79.05 30.3L79.9 29.75L79.9 29.8L79.2 30.35Q79.05 30.4 79.2 30.45L79.1 30.6L78.85 30.7L78.9 30.5L78.8 30.5L78.8 30.75L78.75 30.75L78.7 30.8L78.55 30.55" />
<path style="fill:#363634;fill-opacity:1" d="M79.95,29.9L79.9 29.8L79.9 29.75L80.3 29.4L80.3 29.45L80.05 29.75L80 30L79.9 29.95L79.95 29.9" />
<path style="fill:#8A7B7E;fill-opacity:1" d="M79.9,29.8L79.95 29.9L79.9 29.95L79.25 30.4L79.2 30.45Q79.05 30.4 79.2 30.35L79.9 29.8M78.8,30.5L78.9 30.5L78.85 30.7L78.8 30.7L78.8 30.75L78.8 30.5" />
<path style="fill:#CBCDCC;fill-opacity:1" d="M80.05,29.75L80.3 29.45L80.3 29.55L80.3 29.6L80.25 29.7L80.05 29.95L80 30L80.05 29.75" />
<radialGradient
id="RadialGradID_5388" gradientUnits="userSpaceOnUse" gradientTransform="matrix(-0.00569153, 0, 0, 0.00453186, 75.2, 30.9)" spreadMethod ="pad" cx="0" cy="0" r="819.2" fx="0" fy="0" >
<stop  offset="0.0313725"  style="stop-color:#FFFFFF;stop-opacity:0" />
<stop  offset="1"  style="stop-color:#FFFFFF;stop-opacity:0.211765" />
</radialGradient>
<path style="fill:url(#RadialGradID_5388) " d="M76.75,30.5L75.8 30.3L76 31.35L76.4 31.45L76.75 30.5M77.95,30.75L77.95 31.35Q77.75 32.9 77.15 33.2L76.9 33.3L72.55 33.4L72.5 33.4Q71.05 30.95 72.05 30.45L73.3 30.15Q75.4 29.85 76.65 30.1Q77.85 30.35 77.9 30.65L77.95 30.7L77.95 30.75M77.65,30.85L76.9 30.55L76.5 31.5Q76.8 31.55 77.05 31.75L77.65 30.85" />
<linearGradient
id="LinearGradID_5389" gradientUnits="userSpaceOnUse" gradientTransform="matrix(-0.00379944, 0.000106812, 1.52588e-005, 0.000610352, 74.7, 30.3)" spreadMethod ="pad" x1="-819.2" y1="0" x2="819.2" y2="0" >
<stop  offset="0.0470588" style="stop-color:#BAAEAE;stop-opacity:1" />
<stop  offset="0.54902" style="stop-color:#8E7976;stop-opacity:1" />
<stop  offset="1" style="stop-color:#F5FDFF;stop-opacity:1" />
</linearGradient>
<path style="fill:url(#LinearGradID_5389) " d="M74.05,29.95Q71.65 30.25 71.5 30.8Q71.35 30.6 71.9 30.25L72 30.25Q74.65 29.4 77.75 30.15L77.85 30.2L78.05 30.5L78.1 30.55L78.1 30.6L78.1 30.7L78.05 30.65L78 30.55Q77.25 29.75 74.05 29.95" />
<linearGradient
id="LinearGradID_5390" gradientUnits="userSpaceOnUse" gradientTransform="matrix(-0.000442505, -7.62939e-005, -0.00012207, 0.00062561, 76.55, 30.95)" spreadMethod ="pad" x1="-819.2" y1="0" x2="819.2" y2="0" >
<stop  offset="0.0313725" style="stop-color:#FFFFFF;stop-opacity:0" />
<stop  offset="1" style="stop-color:#FFFFFF;stop-opacity:0.313725" />
</linearGradient>
<path style="fill:url(#LinearGradID_5390) " d="M76.4,31.45L76 31.35L75.8 30.3L76.75 30.5L76.4 31.45" />
<linearGradient
id="LinearGradID_5391" gradientUnits="userSpaceOnUse" gradientTransform="matrix(-0.0032959, -0.000183105, -9.15527e-005, 0.00160217, 75, 32.5)" spreadMethod ="pad" x1="-819.2" y1="0" x2="819.2" y2="0" >
<stop  offset="0.0470588" style="stop-color:#D6CEC3;stop-opacity:1" />
<stop  offset="0.54902" style="stop-color:#B28D7D;stop-opacity:1" />
<stop  offset="1" style="stop-color:#AC9792;stop-opacity:1" />
</linearGradient>
<path style="fill:url(#LinearGradID_5391) " d="M71.7,32.35L71.8 32.35L72.5 33.4L72.55 33.4L76.9 33.3L77.15 33.2Q77.75 32.9 77.95 31.35L77.95 31.5L78 31.5Q77.85 33 77.25 33.35L77 33.45L72.65 33.55L72.25 33.35L72.2 33.2L72.05 32.95L72 32.9L71.9 32.75L71.7 32.35" />
<linearGradient
id="LinearGradID_5392" gradientUnits="userSpaceOnUse" gradientTransform="matrix(-0.000274658, -0.000106812, -0.000228882, 0.000610352, 77.7, 31.5)" spreadMethod ="pad" x1="-819.2" y1="0" x2="819.2" y2="0" >
<stop  offset="0.0313725" style="stop-color:#FFFFFF;stop-opacity:0" />
<stop  offset="1" style="stop-color:#FFFFFF;stop-opacity:0.313725" />
</linearGradient>
<path style="fill:url(#LinearGradID_5392) " d="M77.05,31.75Q76.8 31.55 76.5 31.5L76.9 30.55L77.65 30.85L77.05 31.75" />
</g>
</svg>
